imgs/font_02/gt/02_00.svg

<svg xmlns="http://www.w3.org/2000/svg" xmlns:xlink="http://www.w3.org/1999/xlink" width="50px" height="50px" viewBox="0 0 24 24">
<style type="text/css">
.path {
		stroke-dasharray: 100;
		animation: dash 30s linear infinite;
}
@keyframes dash {
	to {
		stroke-dashoffset: 1000;
	}
}
</style>
<path class="path" d="m 9.38671875 6.670572757720947 l 5.285156726837158 0.0 l 3.8671875 15.99609375 l -4.3828125 0.0 l -0.5390625596046448 -2.671875 l -3.2578125 0.0 l -0.5156250596046448 2.671875 l -4.3828125 0.0 l 3.9257808923721313 -15.99609375 m 2.5078128576278687 3.1992199420928955 c -0.046875 0.734375 -0.18359375 1.75390625 -0.4101563096046448 3.05859375 l -0.6914063096046448 3.78515625 l 2.33203125 0.0 l -0.6796875596046448 -3.667968511581421 c -0.234375 -1.390625 -0.38671875 -2.44921875 -0.4570313096046448 -3.17578125 l -0.0937497615814209 -2.384185791015625e-07" fill="none" stroke="black" stroke-width="0.3">
</path>
</svg>

<svg xmlns="http://www.w3.org/2000/svg" xmlns:xlink="http://www.w3.org/1999/xlink" width="50px" height="50px" viewBox="0 0 24 24">
<style type="text/css">
.pen {
	stroke-dashoffset: 0;
	animation-duration: 5s;
	animation-iteration-count: 1000;
	animation-timing-function: ease;
}
.path00 {
		stroke-dasharray: 10;
		animation-name: dash00 
}
@keyframes dash00 {
	0% {
		stroke-dashoffset: 10;
	}
	7% {
		stroke-dashoffset: 0;
	}
}
.path01 {
		stroke-dasharray: 32;
		animation-name: dash01 
}
@keyframes dash01 {
	0%, 7% {
		stroke-dashoffset: 32;
	}
	30% {
		stroke-dashoffset: 0;
	}
}
.path02 {
		stroke-dasharray: 8;
		animation-name: dash02 
}
@keyframes dash02 {
	0%, 30% {
		stroke-dashoffset: 8;
	}
	36% {
		stroke-dashoffset: 0;
	}
}
.path03 {
		stroke-dasharray: 5;
		animation-name: dash03 
}
@keyframes dash03 {
	0%, 36% {
		stroke-dashoffset: 5;
	}
	40% {
		stroke-dashoffset: 0;
	}
}
.path04 {
		stroke-dasharray: 6;
		animation-name: dash04 
}
@keyframes dash04 {
	0%, 40% {
		stroke-dashoffset: 6;
	}
	44% {
		stroke-dashoffset: 0;
	}
}
.path05 {
		stroke-dasharray: 5;
		animation-name: dash05 
}
@keyframes dash05 {
	0%, 44% {
		stroke-dashoffset: 5;
	}
	48% {
		stroke-dashoffset: 0;
	}
}
.path06 {
		stroke-dasharray: 8;
		animation-name: dash06 
}
@keyframes dash06 {
	0%, 48% {
		stroke-dashoffset: 8;
	}
	54% {
		stroke-dashoffset: 0;
	}
}
.path07 {
		stroke-dasharray: 32;
		animation-name: dash07 
}
@keyframes dash07 {
	0%, 54% {
		stroke-dashoffset: 32;
	}
	77% {
		stroke-dashoffset: 0;
	}
}
.path08 {
		stroke-dasharray: 6;
		animation-name: dash08 
}
@keyframes dash08 {
	0%, 77% {
		stroke-dashoffset: 6;
	}
	81% {
		stroke-dashoffset: 0;
	}
}
.path09 {
		stroke-dasharray: 7;
		animation-name: dash09 
}
@keyframes dash09 {
	0%, 81% {
		stroke-dashoffset: 7;
	}
	86% {
		stroke-dashoffset: 0;
	}
}
.path10 {
		stroke-dasharray: 4;
		animation-name: dash10 
}
@keyframes dash10 {
	0%, 86% {
		stroke-dashoffset: 4;
	}
	90% {
		stroke-dashoffset: 0;
	}
}
.path11 {
		stroke-dasharray: 7;
		animation-name: dash11 
}
@keyframes dash11 {
	0%, 90% {
		stroke-dashoffset: 7;
	}
	95% {
		stroke-dashoffset: 0;
	}
}
.path12 {
		stroke-dasharray: 6;
		animation-name: dash12 
}
@keyframes dash12 {
	0%, 95% {
		stroke-dashoffset: 6;
	}
	99% {
		stroke-dashoffset: 0;
	}
}
.path13 {
		stroke-dasharray: 0;
		animation-name: dash13 
}
@keyframes dash13 {
	0%, 99% {
		stroke-dashoffset: 0;
	}
	100% {
		stroke-dashoffset: 0;
	}
}
</style>
<path class="pen path00" d="M 9.38671875 6.670572757720947 L 14.671875476837158 6.670572757720947 " fill="none" stroke="black" stroke-width="0.3"></path>
<path class="pen path01" d="M 14.671875476837158 6.670572757720947 L 18.539062976837158 22.666666507720947 " fill="none" stroke="black" stroke-width="0.3"></path>
<path class="pen path02" d="M 18.539062976837158 22.666666507720947 L 14.156250476837158 22.666666507720947 " fill="none" stroke="black" stroke-width="0.3"></path>
<path class="pen path03" d="M 14.156250476837158 22.666666507720947 L 13.617187917232513 19.994791507720947 " fill="none" stroke="black" stroke-width="0.3"></path>
<path class="pen path04" d="M 13.617187917232513 19.994791507720947 L 10.359375417232513 19.994791507720947 " fill="none" stroke="black" stroke-width="0.3"></path>
<path class="pen path05" d="M 10.359375417232513 19.994791507720947 L 9.843750357627869 22.666666507720947 " fill="none" stroke="black" stroke-width="0.3"></path>
<path class="pen path06" d="M 9.843750357627869 22.666666507720947 L 5.460937857627869 22.666666507720947 " fill="none" stroke="black" stroke-width="0.3"></path>
<path class="pen path07" d="M 5.460937857627869 22.666666507720947 L 9.38671875 6.670572757720947 " fill="none" stroke="black" stroke-width="0.3"></path>
<path class="pen path08" d="M 11.894531607627869 9.869792699813843 C 11.847656607627869 10.604167699813843 11.710937857627869 11.623698949813843 11.484375298023224 12.928386449813843 " fill="none" stroke="black" stroke-width="0.3"></path>
<path class="pen path09" d="M 11.484375298023224 12.928386449813843 L 10.792968988418579 16.713542699813843 " fill="none" stroke="black" stroke-width="0.3"></path>
<path class="pen path10" d="M 10.792968988418579 16.713542699813843 L 13.125000238418579 16.713542699813843 " fill="none" stroke="black" stroke-width="0.3"></path>
<path class="pen path11" d="M 13.125000238418579 16.713542699813843 L 12.445312678813934 13.045574188232422 " fill="none" stroke="black" stroke-width="0.3"></path>
<path class="pen path12" d="M 12.445312678813934 13.045574188232422 C 12.210937678813934 11.654949188232422 12.058593928813934 10.596355438232422 11.98828136920929 9.869792938232422 " fill="none" stroke="black" stroke-width="0.3"></path>
<path class="pen path13" d="M 11.98828136920929 9.869792938232422 L 11.894531607627869 9.869792699813843 " fill="none" stroke="black" stroke-width="0.3"></path>
</svg>
